src/assets/icons/numbers,simple,00.svg

<svg width="48" height="48" viewBox="0 0 48 48" fill="none" xmlns="http://www.w3.org/2000/svg">
<rect opacity="0.2" x="5" y="5" width="38" height="38" rx="4" fill="black"/>
<path d="M23.9959 36.4954C29.6653 36.4954 33.0889 32.18 33.0999 24.7493C33.1109 17.3736 29.6432 13.1463 23.9959 13.1463C18.3375 13.1463 14.9028 17.3626 14.8918 24.7493C14.8698 32.158 18.3155 36.4844 23.9959 36.4954ZM23.9959 32.5433C21.4089 32.5433 19.7356 29.9453 19.7466 24.7493C19.7576 19.6303 21.4199 17.0543 23.9959 17.0543C26.5609 17.0543 28.2342 19.6303 28.2342 24.7493C28.2452 29.9453 26.5719 32.5433 23.9959 32.5433Z" fill="black"/>
</svg>

<svg xmlns="http://www.w3.org/2000/svg" width="48" height="48" fill="none" viewBox="0 0 48 48">
  <rect width="38" height="38" x="5" y="5" fill="#000" opacity=".2" rx="4"/>
  <path fill="#000" d="M23.996 36.495c5.67 0 9.093-4.315 9.104-11.746.01-7.375-3.457-11.603-9.104-11.603-5.659 0-9.093 4.217-9.104 11.603-.022 7.409 3.424 11.735 9.104 11.746zm0-3.952c-2.587 0-4.26-2.598-4.25-7.794.012-5.119 1.674-7.695 4.25-7.695 2.565 0 4.238 2.576 4.238 7.695.011 5.196-1.662 7.794-4.238 7.794z"/>
</svg>
